public/images/icon/icon-01.svg

<svg xmlns="http://www.w3.org/2000/svg" width="36" height="36" fill="none"><g fill="#fff" clip-path="url(#a)"><path d="M3 19.5h9v12H3zm10.5-15h9v27h-9z"/><path d="M24 12h9v19.5h-9z" opacity=".5"/></g><defs><clipPath id="a"><path fill="#fff" d="M0 0h36v36H0z"/></clipPath></defs></svg>

<svg width="36" height="36" viewBox="0 0 36 36" fill="none" xmlns="http://www.w3.org/2000/svg">
<g clip-path="url(#clip0_14_69)">
<path d="M3 19.5H12V31.5H3V19.5ZM13.5 4.5H22.5V31.5H13.5V4.5Z" fill="white"/>
<path opacity="0.5" d="M24 12H33V31.5H24V12Z" fill="white"/>
</g>
<defs>
<clipPath id="clip0_14_69">
<rect width="36" height="36" fill="white"/>
</clipPath>
</defs>
</svg>
